dist/img/svg/whatsapp.svg

<svg width="64" height="64" viewBox="0 0 64 64" fill="none" xmlns="http://www.w3.org/2000/svg">
<path d="M39.8258 37.522C39.4958 38.448 37.9118 39.292 37.1498 39.406C36.4678 39.508 35.6038 39.55 34.6538 39.25C34.0778 39.066 33.3398 38.822 32.3958 38.414C28.4198 36.698 25.8218 32.696 25.6238 32.432C25.4258 32.168 24.0058 30.284 24.0058 28.334C24.0058 26.384 25.0298 25.424 25.3938 25.028C25.7558 24.632 26.1858 24.532 26.4498 24.532C26.7138 24.532 26.9778 24.534 27.2098 24.546C27.4538 24.558 27.7798 24.454 28.1018 25.226C28.4318 26.02 29.2238 27.97 29.3238 28.168C29.4218 28.366 29.4878 28.598 29.3558 28.862C29.2238 29.126 29.1578 29.292 28.9598 29.524C28.7618 29.754 28.5438 30.04 28.3658 30.218C28.1678 30.414 27.9598 30.63 28.1918 31.026C28.4238 31.422 29.2178 32.72 30.3958 33.77C31.9098 35.12 33.1878 35.538 33.5838 35.738C33.9798 35.936 34.2118 35.902 34.4418 35.638C34.6738 35.374 35.4338 34.482 35.6978 34.084C35.9618 33.688 36.2258 33.754 36.5898 33.886C36.9518 34.018 38.9018 34.976 39.2978 35.176C39.6938 35.374 39.9578 35.472 40.0578 35.638C40.1558 35.804 40.1558 36.596 39.8258 37.522ZM32.0718 18.678C24.7998 18.678 18.8838 24.59 18.8818 31.856C18.8818 34.346 19.5778 36.772 20.8978 38.87L21.2118 39.368L19.8798 44.232L24.8698 42.924L25.3498 43.208C27.3738 44.41 29.6938 45.046 32.0598 45.046H32.0658C39.3318 45.046 45.2458 39.134 45.2498 31.866C45.2498 28.344 43.8818 25.034 41.3918 22.542C38.9018 20.052 35.5918 18.678 32.0718 18.678Z" fill="#67D449"/>
<path d="M32.066 47.724H32.06C29.404 47.724 26.796 47.058 24.48 45.794L16.07 48L18.322 39.782C16.934 37.378 16.202 34.65 16.204 31.854C16.208 23.112 23.322 16 32.066 16C36.308 16 40.292 17.652 43.286 20.65C46.28 23.646 47.93 27.63 47.928 31.868C47.924 40.61 40.808 47.724 32.066 47.724ZM32 0C14.326 0 0 14.326 0 32C0 49.672 14.326 64 32 64C49.672 64 64 49.672 64 32C64 14.326 49.672 0 32 0Z" fill="#67D449"/>
</svg>

<!-- icon666.com - MILLIONS vector ICONS FREE --><svg viewBox="0 0 64 64" xmlns="http://www.w3.org/2000/svg"><g id="Icons" fill="none" fill-rule="evenodd"><g id="Social-Media-Collection" fill="#67d449" transform="translate(-122 -396)"><g id="Whatsapp" transform="translate(122 396)"><path id="Fill-232" d="m39.8258 37.522c-.33.926-1.914 1.77-2.676 1.884-.682.102-1.546.144-2.496-.156-.576-.184-1.314-.428-2.258-.836-3.976-1.716-6.574-5.718-6.772-5.982s-1.618-2.148-1.618-4.098 1.024-2.91 1.388-3.306c.362-.396.792-.496 1.056-.496s.528.002.76.014c.244.012.57-.092.892.68.33.794 1.122 2.744 1.222 2.942.098.198.164.43.032.694s-.198.43-.396.662c-.198.23-.416.516-.594.694-.198.196-.406.412-.174.808s1.026 1.694 2.204 2.744c1.514 1.35 2.792 1.768 3.188 1.968.396.198.628.164.858-.1.232-.264.992-1.156 1.256-1.554.264-.396.528-.33.892-.198.362.132 2.312 1.09 2.708 1.29.396.198.66.296.76.462.098.166.098.958-.232 1.884m-7.754-18.844c-7.272 0-13.188 5.912-13.19 13.178 0 2.49.696 4.916 2.016 7.014l.314.498-1.332 4.864 4.99-1.308.48.284c2.024 1.202 4.344 1.838 6.71 1.838h.006c7.266 0 13.18-5.912 13.184-13.18 0-3.522-1.368-6.832-3.858-9.324-2.49-2.49-5.8-3.864-9.32-3.864"></path><g id="Fill-324"><path id="Fill-233" d="m32.066 47.724h-.006c-2.656 0-5.264-.666-7.58-1.93l-8.41 2.206 2.252-8.218c-1.388-2.404-2.12-5.132-2.118-7.928.004-8.742 7.118-15.854 15.862-15.854 4.242 0 8.226 1.652 11.22 4.65 2.994 2.996 4.644 6.98 4.642 11.218-.004 8.742-7.12 15.856-15.862 15.856m-.066-47.724c-17.674 0-32 14.326-32 32 0 17.672 14.326 32 32 32 17.672 0 32-14.328 32-32 0-17.674-14.328-32-32-32"></path></g></g></g></g></svg>
